!!!!SEGMENT: pl-wnifc--13846--115_anonim--piesni-polskie-i-ruskie-ludu-galicyjskiego-115-sonce-hrije-wiater-wije.krn
!!!cenid: 18xx:3337
!!!COM: Anonim
!!!COM-rismid: pe30004985
!!!CDT:
!!!CNT:
!!!GTL: Pieśni polskie i ruskie ludu galicyjskiego
!!!OTL: 115. Sonce hrije, wiater wije
!!!PDT: 1833
!!!AGN:
!!!SMS-siglum: PL-Wnifc
!!!SMS-shelfmark: 13846
!!!SMS-shelfwork: 115 G
!!!NIFC-rismid: 1001039610
!!!URL-scan: http://repozytorium.nifc.pl/skany/pl-wnifc-nut--13846
!!!ONB-nifc:
!!!OMD: Andante con moto.
!!!key: a
**kern	**kern	**kern	**text
*group2	*group2	*group1	*
*part2	*part2	*part1	*part1
*staff3	*staff2	*staff1	*staff1
*I"[Piano]	*I"[Piano]	*I"[Soprano]	*
*Ipiano	*Ipiano	*Isoprn	*
*ICklav	*ICklav	*ICvox	*
*IGacmp	*IGacmp	*IGsolo	*
*clefF4	*clefG2	*clefG2	*
*k[]	*k[]	*k[]	*
*a:	*a:	*a:	*
*M2/4	*M2/4	*M2/4	*
=1-	=1-	=1-	=1-
!	!	!LO:TX:b:B:rj:t=E.161.	!
8A\ 8c\ 8e\	8a\L 8cc\	8cc\	Son-
8r	8cc\J 8ee\	8ee\	-ce
8A\ 8c\ 8e\	8cc\L 8ee\	8ee\	hri-
8r	(>\16ccL 16ee\	(>16ee\LL	-je,
.	16cc\JJ) 16aa\	16aa\JJ)	.
=2	=2	=2	=2
8E^>\ 8A\ 8e\	8.cc\L 8.aa\	8.aa\	wi-
8r	.	.	.
.	16cc\Jk 16ee\	16ee\	-ter
4E\ 4B\ 4d\	8g#X\L 8ee\	8ee\	wi-
.	(>\16g#L 16dd\	(>16dd\LL	-je,
.	16b\JJ)	16b\JJ)	.
!!LO:LB:g=original
=3	=3	=3	=3
8A\ 8c\	8a\L 8cc\	8cc\	a
8r	8cc\J 8ee\	8ee\	diw-
8A\ 8e\	8cc\L 8ee\	8ee\	-czy-
8r	(>\16ccL 16ee\	(>16ee\LL	-na
.	16cc\JJ) 16aa\	16aa\JJ)	.
=4	=4	=4	=4
8E\L 8A\ 8c\	8.cc\L 8.aa\	8.aa\	z ża-
8A\J 8c\ 8e\	.	.	.
!	!	!LO:TX:a:t=P:problem:Z "żalu" lub "żału". Wygląda bardziej jak "ł"	!
.	16cc\Jk 16ee\	16ee\	-łu
4E\ 4B\ 4d\	16g#X^>\LL 16ee\	8ee\	mhli-
.	(>16g#\J 16dd\	.	.
.	8b\J)	(>16dd\LL	-je;
.	.	16b\JJ)	.
!!LO:LB:g=original
=5!|:	=5!|:	=5!|:	=5!|:
16A\LL 16c\	8.ee\L	8.ee\	zna-
16e\	.	.	.
16A\ 16c\	.	.	.
16e\JJ	16cc\Jk	16cc\	-ty,
*rep	*	*	*
16A\LL 16c\	8b/L	8b/	zna-
16e\	.	.	.
16A\ 16c\	8a/J	8a/	-ty
16e\JJ	.	.	.
*Xrep	*	*	*
=6	=6	=6	=6
16E\LL 16B\	8g#X/L	8g#X/	po
16d\	.	.	.
16E\ 16B\	8e/J	8e/	tim
16d\JJ	.	.	.
16A\LL 16c\	8a\L 8aa\	8a/	łycz-
16e\	.	.	.
16A\ 16c\	8cc\J 8ccc\	8cc/	-ku
16e\JJ	.	.	.
!!LO:LB:g=original
=7	=7	=7	=7
16A\LL 16c\	8ee\L 8eee\	8ee\	szo
16e\	.	.	.
16A\ 16c\	8cc\ 8ccc\	8cc\	tu-
16e\JJ	.	.	.
*rep	*	*	*
16A\LL 16c\	8b\ 8bb\	8b\	-ży-
16e\	.	.	.
16A\ 16c\	8a\J 8aa\	8a/	-ła
16e\JJ	.	.	.
*Xrep	*	*	*
=8	=8	=8	=8
16E\LL 16B\	8g#X\L 8gg#X\	8g#X/	ci-
16d\	.	.	.
16E\ 16B\	8e\J 8ee\	8e/	-łu
16d\JJ	.	.	.
!!mixed beam:problem
!	!LO:TX:t=P:problem:mixed beam	!	!
4A\ 4c\	8a\L 8aa\	8a/	nicz-
.	8a/J	8a/	-ku.
==	==	==	==
*-	*-	*-	*-
!!!system-decoration: g1,[{g2}]
!!!EED: Jędrzej Mróz
!!!ESR: 2021-11-11
!!!RDF**kern: > = above
!!!RDF**kern: < = below
